X:271
T: MAEDCHEN MEINER SEELEN
N: E1414
O: Europa, Mitteleuropa, Deutschland, Schlesien; Thueringen; Berlin
R: Staende -, Soldaten - Lied, Krieg, Abschied
M: 3/8
L: 1/8
K: G
 | DGG | GBd | BAA
DFA | d2c | B2z
d2B | Bcd | dcc
c2A | ABc | edd
BGB | dcA | G2z

